public/design_9/images/logo_bottom.svg

<svg width="183" height="43" viewBox="0 0 183 43" fill="none" xmlns="http://www.w3.org/2000/svg">
<path d="M130.117 42.5293L133.117 36.7362L128.797 29.0254H132.517L134.897 33.5999L137.217 29.0254H140.877L133.697 42.5293H130.117Z" fill="#BBC2CC"/>
<path d="M128.083 35.0785V37.7554C127.403 38.0883 126.663 38.2548 125.863 38.2548C124.45 38.2548 123.276 37.802 122.343 36.8964C121.423 36.0041 120.963 34.8921 120.963 33.5604C120.963 32.1887 121.443 31.0367 122.403 30.1045C123.35 29.1989 124.55 28.7461 126.003 28.7461C126.723 28.7461 127.416 28.9126 128.083 29.2455V31.9223C127.536 31.5361 126.983 31.343 126.423 31.343C125.796 31.343 125.276 31.5494 124.863 31.9623C124.45 32.3751 124.243 32.8878 124.243 33.5004C124.243 34.0864 124.43 34.5858 124.803 34.9986C125.23 35.4514 125.776 35.6778 126.443 35.6778C127.07 35.6778 127.616 35.4781 128.083 35.0785Z" fill="#BBC2CC"/>
<path d="M115.919 29.8842V29.0252H119.119V37.9546H115.919V36.9758C115.305 37.8281 114.379 38.2542 113.139 38.2542C111.885 38.2542 110.812 37.7815 109.919 36.8359C109.065 35.9303 108.639 34.8383 108.639 33.5598C108.639 32.0949 109.099 30.903 110.019 29.9841C110.859 29.1451 111.932 28.7256 113.239 28.7256C114.332 28.7256 115.225 29.1118 115.919 29.8842ZM113.959 31.4423C113.425 31.4423 112.959 31.6355 112.559 32.0217C112.132 32.4345 111.919 32.9206 111.919 33.4799C111.919 34.0659 112.125 34.552 112.539 34.9382C112.965 35.3377 113.445 35.5375 113.979 35.5375C114.525 35.5375 115.005 35.331 115.419 34.9182C115.819 34.5187 116.019 34.0393 116.019 33.4799C116.019 32.9073 115.812 32.4212 115.399 32.0217C114.985 31.6355 114.505 31.4423 113.959 31.4423Z" fill="#BBC2CC"/>
<path d="M91.5376 37.9544V29.025H94.7376V30.1038C95.4176 29.2781 96.3109 28.8652 97.4176 28.8652C98.0709 28.8652 98.6443 28.9984 99.1376 29.2648C99.6709 29.5444 100.084 29.9706 100.378 30.5432C100.684 29.9972 101.091 29.5844 101.598 29.3047C102.118 29.0117 102.738 28.8652 103.458 28.8652C104.551 28.8652 105.378 29.1382 105.938 29.6843C106.498 30.2303 106.778 31.0493 106.778 32.1413V37.9544H103.578V33.5397C103.578 32.5542 103.424 31.9149 103.118 31.6219C102.891 31.4222 102.611 31.3223 102.278 31.3223C101.904 31.3223 101.591 31.4422 101.338 31.6819C100.951 32.0548 100.758 32.6208 100.758 33.3799V37.9544H97.5576V33.5397C97.5576 32.5542 97.4176 31.9149 97.1376 31.6219C96.9109 31.3822 96.5909 31.2624 96.1776 31.2624C95.8043 31.2624 95.5109 31.3689 95.2976 31.582C94.9243 31.9416 94.7376 32.5941 94.7376 33.5397V37.9544H91.5376Z" fill="#BBC2CC"/>
<path d="M83.354 37.9549V29.0256H86.554V30.4838C86.8473 29.9245 87.2673 29.5117 87.814 29.2453C88.254 29.0056 88.8073 28.8857 89.474 28.8857C89.5007 28.8857 89.534 28.8924 89.574 28.9057C89.614 28.9057 89.6807 28.9124 89.774 28.9257C89.8807 28.9257 89.994 28.9257 90.114 28.9257V31.9421C89.6873 31.729 89.2273 31.6225 88.734 31.6225C88.1073 31.6225 87.6207 31.7823 87.274 32.1019C86.794 32.5414 86.554 33.2206 86.554 34.1395V37.9549H83.354Z" fill="#BBC2CC"/>
<path d="M77.9499 29.8842V29.0252H81.1499V37.9546H77.9499V36.9758C77.3366 37.8281 76.4099 38.2542 75.1699 38.2542C73.9166 38.2542 72.8433 37.7815 71.9499 36.8359C71.0966 35.9303 70.6699 34.8383 70.6699 33.5598C70.6699 32.0949 71.1299 30.903 72.0499 29.9841C72.8899 29.1451 73.9633 28.7256 75.2699 28.7256C76.3633 28.7256 77.2566 29.1118 77.9499 29.8842ZM75.9899 31.4423C75.4566 31.4423 74.9899 31.6355 74.5899 32.0217C74.1633 32.4345 73.9499 32.9206 73.9499 33.4799C73.9499 34.0659 74.1566 34.552 74.5699 34.9382C74.9966 35.3377 75.4766 35.5375 76.0099 35.5375C76.5566 35.5375 77.0366 35.331 77.4499 34.9182C77.8499 34.5187 78.0499 34.0393 78.0499 33.4799C78.0499 32.9073 77.8433 32.4212 77.4299 32.0217C77.0166 31.6355 76.5366 31.4423 75.9899 31.4423Z" fill="#BBC2CC"/>
<path d="M60.0728 37.9542V23.3916H63.2728V30.1436C63.5661 29.7707 63.8994 29.4777 64.2728 29.2646C64.7794 28.9716 65.3928 28.8251 66.1128 28.8251C67.2328 28.8251 68.1128 29.1447 68.7528 29.784C69.1128 30.1436 69.3394 30.5164 69.4328 30.9027C69.5394 31.2755 69.5928 31.735 69.5928 32.281V37.9542H66.3928V33.4396C66.3928 32.574 66.2594 31.9947 65.9928 31.7017C65.7661 31.4487 65.4261 31.3222 64.9728 31.3222C64.4794 31.3222 64.0928 31.4487 63.8128 31.7017C63.4528 32.0346 63.2728 32.5207 63.2728 33.16V37.9542H60.0728Z" fill="#BBC2CC"/>
<path d="M54.0399 33.5402H51.8599V37.955H48.3999V24.6309H53.9199C55.3466 24.6309 56.4732 25.0304 57.2999 25.8294C58.1266 26.6285 58.5399 27.7072 58.5399 29.0656C58.5399 30.5039 58.1466 31.6092 57.3599 32.3816C56.5732 33.154 55.4666 33.5402 54.0399 33.5402ZM51.8599 27.4275V30.7436H53.0199C53.6866 30.7436 54.1732 30.6037 54.4799 30.3241C54.7732 30.071 54.9199 29.6649 54.9199 29.1055C54.9199 28.5728 54.7866 28.1733 54.5199 27.907C54.2132 27.5873 53.7199 27.4275 53.0399 27.4275H51.8599Z" fill="#BBC2CC"/>
<path d="M171.635 16.9797V8.05035H174.835V9.16901C175.502 8.29006 176.449 7.85059 177.675 7.85059C178.795 7.85059 179.675 8.1702 180.315 8.80944C180.662 9.1557 180.889 9.51527 180.995 9.88816C181.102 10.261 181.155 10.7338 181.155 11.3065V16.9797H177.955V12.4651C177.955 11.5861 177.822 11.0068 177.555 10.7272C177.315 10.4741 176.975 10.3476 176.535 10.3476C176.055 10.3476 175.662 10.4874 175.355 10.7671C175.009 11.0867 174.835 11.5595 174.835 12.1854V16.9797H171.635Z" fill="#BBC2CC"/>
<path d="M166.231 8.9096V8.05062H169.431V16.98H166.231V16.0011C165.618 16.8535 164.691 17.2796 163.451 17.2796C162.198 17.2796 161.125 16.8069 160.231 15.8613C159.378 14.9557 158.951 13.8637 158.951 12.5852C158.951 11.1203 159.411 9.92838 160.331 9.00948C161.171 8.17048 162.245 7.75098 163.551 7.75098C164.645 7.75098 165.538 8.13718 166.231 8.9096ZM164.271 10.4677C163.738 10.4677 163.271 10.6608 162.871 11.047C162.445 11.4599 162.231 11.946 162.231 12.5053C162.231 13.0913 162.438 13.5774 162.851 13.9636C163.278 14.3631 163.758 14.5629 164.291 14.5629C164.838 14.5629 165.318 14.3564 165.731 13.9436C166.131 13.5441 166.331 13.0646 166.331 12.5053C166.331 11.9327 166.125 11.4466 165.711 11.047C165.298 10.6608 164.818 10.4677 164.271 10.4677Z" fill="#BBC2CC"/>
<path d="M153.94 8.05054H157.14V16.9799H153.94V8.05054ZM154.26 5.61344C153.913 5.25387 153.74 4.82771 153.74 4.33497C153.74 3.84222 153.913 3.42272 154.26 3.07647C154.62 2.7169 155.046 2.53711 155.54 2.53711C156.033 2.53711 156.453 2.7169 156.8 3.07647C157.16 3.42272 157.34 3.84222 157.34 4.33497C157.34 4.82771 157.16 5.25387 156.8 5.61344C156.453 5.9597 156.033 6.13282 155.54 6.13282C155.046 6.13282 154.62 5.9597 154.26 5.61344Z" fill="#BBC2CC"/>
<path d="M151.736 2.41699V16.9796H148.536V16.0008C147.869 16.8531 146.969 17.2793 145.836 17.2793C144.596 17.2793 143.549 16.8664 142.696 16.0408C141.736 15.1085 141.256 13.9233 141.256 12.485C141.256 11.0467 141.743 9.86811 142.716 8.94921C143.556 8.15016 144.609 7.75064 145.876 7.75064C146.929 7.75064 147.816 8.13684 148.536 8.90926V2.41699H151.736ZM146.576 14.5625C147.083 14.5625 147.543 14.3827 147.956 14.0232C148.409 13.6103 148.636 13.1043 148.636 12.505C148.636 11.9723 148.436 11.4928 148.036 11.0667C147.663 10.6672 147.176 10.4674 146.576 10.4674C146.016 10.4674 145.543 10.6605 145.156 11.0467C144.743 11.4596 144.536 11.9656 144.536 12.5649C144.536 13.0843 144.743 13.5504 145.156 13.9632C145.556 14.3628 146.029 14.5625 146.576 14.5625Z" fill="#BBC2CC"/>
<path d="M136.212 8.9096V8.05062H139.412V16.98H136.212V16.0011C135.598 16.8535 134.672 17.2796 133.432 17.2796C132.178 17.2796 131.105 16.8069 130.212 15.8613C129.358 14.9557 128.932 13.8637 128.932 12.5852C128.932 11.1203 129.392 9.92838 130.312 9.00948C131.152 8.17048 132.225 7.75098 133.532 7.75098C134.625 7.75098 135.518 8.13718 136.212 8.9096ZM134.252 10.4677C133.718 10.4677 133.252 10.6608 132.852 11.047C132.425 11.4599 132.212 11.946 132.212 12.5053C132.212 13.0913 132.418 13.5774 132.832 13.9636C133.258 14.3631 133.738 14.5629 134.272 14.5629C134.818 14.5629 135.298 14.3564 135.712 13.9436C136.112 13.5441 136.312 13.0646 136.312 12.5053C136.312 11.9327 136.105 11.4466 135.692 11.047C135.278 10.6608 134.798 10.4677 134.252 10.4677Z" fill="#BBC2CC"/>
<path d="M117.592 16.9797V8.05035H120.792V9.16901C121.459 8.29006 122.406 7.85059 123.632 7.85059C124.752 7.85059 125.632 8.1702 126.272 8.80944C126.619 9.1557 126.846 9.51527 126.952 9.88816C127.059 10.261 127.112 10.7338 127.112 11.3065V16.9797H123.912V12.4651C123.912 11.5861 123.779 11.0068 123.512 10.7272C123.272 10.4741 122.932 10.3476 122.492 10.3476C122.012 10.3476 121.619 10.4874 121.312 10.7671C120.966 11.0867 120.792 11.5595 120.792 12.1854V16.9797H117.592Z" fill="#BBC2CC"/>
<path d="M112.188 8.9096V8.05062H115.388V16.98H112.188V16.0011C111.575 16.8535 110.648 17.2796 109.408 17.2796C108.155 17.2796 107.082 16.8069 106.188 15.8613C105.335 14.9557 104.908 13.8637 104.908 12.5852C104.908 11.1203 105.368 9.92838 106.288 9.00948C107.128 8.17048 108.202 7.75098 109.508 7.75098C110.602 7.75098 111.495 8.13718 112.188 8.9096ZM110.228 10.4677C109.695 10.4677 109.228 10.6608 108.828 11.047C108.402 11.4599 108.188 11.946 108.188 12.5053C108.188 13.0913 108.395 13.5774 108.808 13.9636C109.235 14.3631 109.715 14.5629 110.248 14.5629C110.795 14.5629 111.275 14.3564 111.688 13.9436C112.088 13.5441 112.288 13.0646 112.288 12.5053C112.288 11.9327 112.082 11.4466 111.668 11.047C111.255 10.6608 110.775 10.4677 110.228 10.4677Z" fill="#BBC2CC"/>
<path d="M103.371 12.5247V16.6198C102.158 17.0593 101.158 17.279 100.371 17.279C98.2909 17.279 96.5709 16.6132 95.2109 15.2814C94.5709 14.6422 94.0709 13.8964 93.7109 13.0441C93.3643 12.1785 93.1909 11.3062 93.1909 10.4272C93.1909 9.50831 93.3709 8.61604 93.7309 7.75041C94.1043 6.88477 94.5976 6.13899 95.2109 5.51307C96.5709 4.12806 98.2509 3.43555 100.251 3.43555C101.211 3.43555 102.251 3.66194 103.371 4.11474V8.24981C102.584 7.27764 101.578 6.79155 100.351 6.79155C99.4043 6.79155 98.6043 7.08453 97.9509 7.6705C97.1776 8.38964 96.7909 9.30189 96.7909 10.4072C96.7909 11.4593 97.1509 12.325 97.8709 13.0041C98.5243 13.6167 99.3509 13.923 100.351 13.923C101.511 13.923 102.518 13.4569 103.371 12.5247Z" fill="#BBC2CC"/>
<path d="M86.9747 12.7651V13.1047H80.3147C80.3147 13.7306 80.5014 14.23 80.8747 14.6029C81.1681 14.8959 81.6081 15.0424 82.1947 15.0424C82.5947 15.0424 82.9414 14.9625 83.2347 14.8027C83.4881 14.6562 83.6747 14.4564 83.7947 14.2034H86.8547C86.6547 14.9225 86.2947 15.5351 85.7747 16.0412C84.9214 16.8669 83.7081 17.2797 82.1347 17.2797C80.5747 17.2797 79.3414 16.8269 78.4347 15.9213C77.5547 15.0424 77.1147 13.917 77.1147 12.5454C77.1147 11.1071 77.5614 9.9551 78.4547 9.08947C79.3481 8.22383 80.5681 7.79102 82.1147 7.79102C83.5414 7.79102 84.6881 8.1972 85.5547 9.00956C86.5014 9.91515 86.9747 11.167 86.9747 12.7651ZM80.4147 11.2669H84.0347C83.9414 10.8807 83.7681 10.561 83.5147 10.308C83.1947 9.9884 82.7547 9.82859 82.1947 9.82859C81.6481 9.82859 81.2147 9.9884 80.8947 10.308C80.6281 10.601 80.4681 10.9206 80.4147 11.2669Z" fill="#BBC2CC"/>
<path d="M65.6978 8.0498H68.8978V13.0439C68.8978 13.6165 69.0578 14.0493 69.3778 14.3423C69.6311 14.5687 70.0044 14.6819 70.4978 14.6819C70.9911 14.6819 71.3711 14.5554 71.6378 14.3024C71.9444 13.9961 72.0978 13.5766 72.0978 13.0439V8.0498H75.2978V13.6232C75.2978 14.6353 75.0111 15.4343 74.4378 16.0203C73.6244 16.8593 72.3378 17.2788 70.5778 17.2788C68.6844 17.2788 67.3378 16.8526 66.5378 16.0003C65.9778 15.4144 65.6978 14.622 65.6978 13.6232V8.0498Z" fill="#BBC2CC"/>
<path d="M57.5142 16.9793V8.04999H60.7142V9.50825C61.0075 8.94892 61.4275 8.53608 61.9742 8.26973C62.4142 8.03001 62.9675 7.91016 63.6342 7.91016C63.6608 7.91016 63.6942 7.91681 63.7342 7.93013C63.7742 7.93013 63.8408 7.93679 63.9342 7.95011C64.0408 7.95011 64.1542 7.95011 64.2742 7.95011V10.9665C63.8475 10.7534 63.3875 10.6469 62.8942 10.6469C62.2675 10.6469 61.7808 10.8067 61.4342 11.1263C60.9542 11.5658 60.7142 12.245 60.7142 13.1639V16.9793H57.5142Z" fill="#BBC2CC"/>
<path d="M56.2801 6.59177H53.4401V16.9794H49.9801V6.59177H47.1401V3.65527H56.2801V6.59177Z" fill="#BBC2CC"/>
<path fill-rule="evenodd" clip-rule="evenodd" d="M20.1807 7.42286C20.1807 5.13249 21.5281 3.16357 23.4586 2.23939C22.6945 1.87775 21.8297 1.67684 20.9248 1.68688C17.7675 1.72706 15.2638 4.34894 15.2638 7.50323V16.8455H16.9027C18.7127 16.8455 20.1807 15.3789 20.1807 13.5707V7.42286ZM6.56614 20.9441C6.56614 17.7697 9.14024 15.2081 12.3076 15.2081H7.39066C4.21326 15.2081 1.63916 17.7697 1.63916 20.9441C1.63916 24.1084 4.21326 26.6801 7.39066 26.6801H12.3076C9.14024 26.6801 6.56614 24.1084 6.56614 20.9441ZM20.1807 34.6261V28.3175C20.1807 26.5093 18.7127 25.0427 16.9027 25.0427H15.2638V34.5457C15.2638 37.7 17.7675 40.3219 20.9248 40.3621C21.8297 40.3721 22.6945 40.1712 23.4586 39.8096C21.5281 38.8854 20.1807 36.9165 20.1807 34.6261Z" fill="#BBC2CC" fill-opacity="0.2"/>
<path d="M21.005 41.9998C16.9327 41.9998 13.6246 38.6948 13.6246 34.6264V28.3178H7.39047C3.31817 28.3178 0 25.0129 0 20.9444C0 16.876 3.31817 13.571 7.39047 13.571H13.6246V7.4232C13.6246 3.35477 16.9327 0.0498047 21.005 0.0498047C25.0773 0.0498047 28.3854 3.35477 28.3854 7.4232V13.571H34.6196C38.6919 13.571 42 16.876 42 20.9444C42 21.8485 41.266 22.5819 40.361 22.5819C39.4561 22.5819 38.722 21.8485 38.722 20.9444C38.722 18.6842 36.882 16.8459 34.6196 16.8459H26.7465C25.8415 16.8459 25.1075 16.1126 25.1075 15.2085V7.4232C25.1075 5.16296 23.2674 3.32464 21.005 3.32464C18.7426 3.32464 16.9026 5.16296 16.9026 7.4232V15.2085C16.9026 16.1126 16.1685 16.8459 15.2636 16.8459H7.39047C5.12808 16.8459 3.288 18.6842 3.288 20.9444C3.288 23.2047 5.12808 25.043 7.39047 25.043H15.2636C16.1685 25.043 16.9026 25.7763 16.9026 26.6804V34.6264C16.9026 36.8867 18.7426 38.725 21.005 38.725C23.2674 38.725 25.1075 36.8867 25.1075 34.6264V26.6804C25.1075 25.7763 25.8415 25.043 26.7465 25.043C27.6514 25.043 28.3854 25.7763 28.3854 26.6804V34.6264C28.3854 38.6948 25.0773 41.9998 21.005 41.9998Z" fill="#BBC2CC"/>
<path d="M34.6195 28.3177H33.1414C32.2365 28.3177 31.5024 27.5844 31.5024 26.6803C31.5024 25.7762 32.2365 25.0428 33.1414 25.0428H34.6195C35.1725 25.0428 35.7155 24.9223 36.2585 24.6912C37.0931 24.3196 38.0583 24.7013 38.4203 25.5351C38.7823 26.3588 38.4002 27.3232 37.5757 27.6949C36.6205 28.1067 35.625 28.3177 34.6195 28.3177Z" fill="#BBC2CC"/>
</svg>

<svg xmlns="http://www.w3.org/2000/svg" width="183" height="43" fill="none"><path fill="#BBC2CC" d="m130.117 42.53 3-5.794-4.32-7.71h3.72l2.38 4.574 2.32-4.575h3.66l-7.18 13.504zM128.083 35.079v2.676q-1.02.5-2.22.5-2.12 0-3.52-1.359-1.38-1.338-1.38-3.336 0-2.057 1.44-3.456 1.42-1.358 3.6-1.358 1.08 0 2.08.5v2.676q-.82-.579-1.66-.579-.94 0-1.56.62-.62.618-.62 1.537 0 .88.56 1.499.64.678 1.64.679.94 0 1.64-.6M115.919 29.884v-.859h3.2v8.93h-3.2v-.98q-.92 1.28-2.78 1.28-1.88 0-3.22-1.42-1.28-1.358-1.28-3.275 0-2.197 1.38-3.576 1.26-1.258 3.22-1.258 1.64 0 2.68 1.158m-1.96 1.558q-.8 0-1.4.58-.64.62-.64 1.458 0 .879.62 1.458.639.6 1.44.6.819 0 1.44-.62.6-.6.6-1.438 0-.86-.62-1.458a2.05 2.05 0 0 0-1.44-.58M91.538 37.954v-8.929h3.2v1.079q1.02-1.239 2.68-1.239.98 0 1.72.4.8.42 1.24 1.278a3.1 3.1 0 0 1 1.22-1.238q.78-.44 1.86-.44 1.64 0 2.48.82.84.818.84 2.456v5.813h-3.2V33.54q0-1.479-.46-1.918-.34-.3-.84-.3-.56 0-.94.36-.58.56-.58 1.698v4.574h-3.2V33.54q0-1.479-.42-1.918-.34-.36-.96-.36-.56 0-.88.32-.56.54-.56 1.958v4.414zM83.354 37.955v-8.93h3.2v1.459q.44-.84 1.26-1.239.66-.36 1.66-.36a.3.3 0 0 1 .1.02q.06 0 .2.02h.34v3.017a3.05 3.05 0 0 0-1.38-.32q-.94 0-1.46.48-.72.66-.72 2.038v3.815zM77.95 29.884v-.859h3.2v8.93h-3.2v-.98q-.92 1.28-2.78 1.28-1.88 0-3.22-1.42-1.28-1.358-1.28-3.275 0-2.197 1.38-3.576 1.26-1.258 3.22-1.258 1.64 0 2.68 1.158m-1.96 1.558q-.8 0-1.4.58-.64.62-.64 1.458 0 .879.62 1.458.64.6 1.44.6.82 0 1.44-.62.6-.6.6-1.438 0-.86-.62-1.458a2.04 2.04 0 0 0-1.44-.58M60.073 37.954V23.392h3.2v6.752a3.5 3.5 0 0 1 1-.88q.76-.439 1.84-.439 1.68 0 2.64.959.54.54.68 1.119.16.56.16 1.378v5.673h-3.2V33.44q0-1.299-.4-1.738-.34-.38-1.02-.38-.74 0-1.16.38-.54.5-.54 1.458v4.794zM54.04 33.54h-2.18v4.415H48.4V24.631h5.52q2.14 0 3.38 1.198 1.24 1.2 1.24 3.237 0 2.157-1.18 3.316t-3.32 1.158m-2.18-6.113v3.317h1.16q1 0 1.46-.42.44-.38.44-1.219 0-.798-.4-1.198-.46-.48-1.48-.48zM171.635 16.98V8.05h3.2V9.17q1-1.318 2.84-1.318 1.68 0 2.64.958.52.52.68 1.08.16.558.16 1.418v5.673h-3.2v-4.515q0-1.318-.4-1.738-.36-.38-1.02-.38-.72 0-1.18.42-.52.48-.52 1.418v4.795zM166.231 8.91v-.86h3.2v8.93h-3.2v-.979q-.92 1.279-2.78 1.279-1.88 0-3.22-1.419-1.28-1.357-1.28-3.276 0-2.197 1.38-3.576 1.26-1.258 3.22-1.258 1.64 0 2.68 1.159m-1.96 1.558q-.8 0-1.4.579-.64.62-.64 1.458 0 .879.62 1.459.64.6 1.44.599.82 0 1.44-.62.6-.598.6-1.438a1.95 1.95 0 0 0-.62-1.458 2.04 2.04 0 0 0-1.44-.58M153.94 8.05h3.2v8.93h-3.2zm.32-2.437a1.78 1.78 0 0 1-.52-1.278q0-.739.52-1.259.54-.54 1.28-.539.74 0 1.26.54.54.519.54 1.258 0 .74-.54 1.278-.52.52-1.26.52t-1.28-.52M151.736 2.417V16.98h-3.2V16q-1 1.28-2.7 1.28-1.86 0-3.14-1.24-1.44-1.397-1.44-3.555 0-2.157 1.46-3.536 1.26-1.198 3.16-1.198 1.58 0 2.66 1.158V2.417zm-5.16 12.146q.76 0 1.38-.54.68-.62.68-1.518 0-.8-.6-1.438-.56-.6-1.46-.6-.84 0-1.42.58-.62.62-.62 1.518 0 .78.62 1.398.6.6 1.42.6M136.212 8.91v-.86h3.2v8.93h-3.2v-.979q-.92 1.279-2.78 1.279-1.88 0-3.22-1.419-1.28-1.357-1.28-3.276 0-2.197 1.38-3.576 1.26-1.258 3.22-1.258 1.64 0 2.68 1.159m-1.96 1.558q-.8 0-1.4.579-.64.62-.64 1.458 0 .879.62 1.459.639.6 1.44.599.819 0 1.44-.62.6-.598.6-1.438 0-.858-.62-1.458a2.05 2.05 0 0 0-1.44-.58M117.592 16.98V8.05h3.2V9.17q1-1.318 2.84-1.318 1.68 0 2.64.958.52.52.68 1.08.16.558.16 1.418v5.673h-3.2v-4.515q0-1.318-.4-1.738-.36-.38-1.02-.38-.72 0-1.18.42-.52.48-.52 1.418v4.795zM112.188 8.91v-.86h3.2v8.93h-3.2v-.979q-.92 1.279-2.78 1.279-1.88 0-3.22-1.419-1.28-1.357-1.28-3.276 0-2.197 1.38-3.576 1.26-1.258 3.22-1.258 1.64 0 2.68 1.159m-1.96 1.558q-.8 0-1.4.579-.64.62-.64 1.458 0 .879.62 1.459.64.6 1.44.599.82 0 1.44-.62.6-.598.6-1.438a1.95 1.95 0 0 0-.62-1.458 2.04 2.04 0 0 0-1.44-.58M103.371 12.525v4.095q-1.82.66-3 .659-3.12 0-5.16-1.998a7 7 0 0 1-1.5-2.237 7 7 0 0 1-.52-2.617q0-1.378.54-2.677a7.3 7.3 0 0 1 1.48-2.237q2.04-2.077 5.04-2.077 1.44 0 3.12.679V8.25q-1.18-1.458-3.02-1.458-1.42 0-2.4.878-1.16 1.08-1.16 2.737 0 1.578 1.08 2.597.98.92 2.48.919 1.74 0 3.02-1.398M86.975 12.765v.34h-6.66q0 .939.56 1.498.44.44 1.32.44.6 0 1.04-.24a1.35 1.35 0 0 0 .56-.6h3.06q-.3 1.08-1.08 1.838-1.28 1.239-3.64 1.239-2.34 0-3.7-1.359-1.32-1.318-1.32-3.376 0-2.157 1.34-3.456t3.66-1.298q2.14 0 3.44 1.219 1.42 1.358 1.42 3.755m-6.56-1.498h3.62a2 2 0 0 0-.52-.959q-.48-.48-1.32-.48-.82 0-1.3.48a1.83 1.83 0 0 0-.48.959M65.698 8.05h3.2v4.994q0 .858.48 1.298.38.34 1.12.34t1.14-.38q.46-.459.46-1.258V8.05h3.2v5.573q0 1.518-.86 2.397-1.22 1.26-3.86 1.259-2.84 0-4.04-1.279-.84-.879-.84-2.377zM57.514 16.98V8.05h3.2v1.458q.441-.84 1.26-1.238.66-.36 1.66-.36a.3.3 0 0 1 .1.02q.06 0 .2.02h.34v3.016a3.05 3.05 0 0 0-1.38-.32q-.94 0-1.46.48-.72.66-.72 2.038v3.815zM56.28 6.592h-2.84v10.387h-3.46V6.592h-2.84V3.655h9.14z"/><path fill="#BBC2CC" fill-opacity=".2" fill-rule="evenodd" d="M20.18 7.423a5.75 5.75 0 0 1 3.279-5.184 5.8 5.8 0 0 0-2.534-.552c-3.158.04-5.661 2.662-5.661 5.816v9.343h1.639a3.277 3.277 0 0 0 3.278-3.275zM6.567 20.944a5.737 5.737 0 0 1 5.742-5.736H7.39a5.74 5.74 0 0 0-5.752 5.736c0 3.164 2.574 5.736 5.752 5.736h4.917a5.743 5.743 0 0 1-5.742-5.736m13.615 13.682v-6.308a3.277 3.277 0 0 0-3.278-3.275h-1.64v9.503c0 3.154 2.504 5.776 5.662 5.816.905.01 1.77-.19 2.534-.552a5.75 5.75 0 0 1-3.278-5.184" clip-rule="evenodd"/><path fill="#BBC2CC" d="M21.005 42c-4.072 0-7.38-3.305-7.38-7.374v-6.308H7.39c-4.072 0-7.39-3.305-7.39-7.374s3.318-7.373 7.39-7.373h6.235V7.423c0-4.068 3.308-7.373 7.38-7.373s7.38 3.305 7.38 7.373v6.148h6.235c4.072 0 7.38 3.305 7.38 7.373a1.639 1.639 0 0 1-3.278 0c0-2.26-1.84-4.098-4.102-4.098h-7.873a1.64 1.64 0 0 1-1.64-1.637V7.423c0-2.26-1.84-4.098-4.102-4.098a4.105 4.105 0 0 0-4.102 4.098v7.786c0 .904-.734 1.637-1.64 1.637H7.39a4.105 4.105 0 0 0-4.102 4.098c0 2.26 1.84 4.099 4.102 4.099h7.874c.905 0 1.639.733 1.639 1.637v7.946c0 2.26 1.84 4.099 4.102 4.099a4.105 4.105 0 0 0 4.103-4.099V26.68a1.638 1.638 0 0 1 3.277 0v7.946c0 4.069-3.308 7.374-7.38 7.374"/><path fill="#BBC2CC" d="M34.62 28.318H33.14a1.639 1.639 0 1 1 0-3.275h1.479c.553 0 1.096-.12 1.639-.352a1.63 1.63 0 0 1 2.161.844 1.65 1.65 0 0 1-.844 2.16 7.4 7.4 0 0 1-2.956.623"/></svg>
